X:78
T:How Are You, Mary Geaney?
B:Terry "Cuz" Teahan "Sliabh Luachra on Parade" 1980
Z:Patrick Cavanagh
M:4/4
L:1/8
R:Barndance
K:D
| E>FA>B c2 d2 | e>fe>d B>cd>f | e>AA>B c>AA>B | c/B/A F>A E2 D2 | 
E>FA>B c2 d2 | e>fe>d B>cd>f | e>AA>B c>AG>E | A3 A A4 :| 
| e>fe>A B>cd>f | e>fe>d B>cd>f | e>AA>B c>AA>B | c/B/A F>A E2 D2 | 
E>FA>B c2 d2 | e>fe>d B>cd>f | e>AA>B c/B/A G>E | A3 A A4 :|| 

